src/lib/packages/icons/src/assets/filled/burger-lettuce.svg

<svg xmlns="http://www.w3.org/2000/svg" width="24" height="24" fill="none"><path fill="currentColor" d="M3.5 18v-.5c0-.28.22-.5.5-.5h16c.28 0 .5.22.5.5v.5c0 2-1 3-3 3h-11c-2 0-3-1-3-3Zm18.25-3.28c0-.41-.34-.75-.75-.75s-.61-.16-.98-.51c-.41-.39-.97-.93-2.02-.93s-1.61.54-2.02.93c-.37.35-.55.51-.98.51-.43 0-.61-.16-.98-.51-.41-.39-.97-.93-2.02-.93s-1.61.54-2.02.93c-.37.35-.55.51-.98.51-.43 0-.61-.16-.98-.51-.41-.39-.97-.93-2.02-.93s-1.61.54-2.02.93c-.37.35-.55.51-.98.51-.43 0-.75.34-.75.75s.34.75.75.75c1.05 0 1.61-.54 2.02-.93.37-.35.55-.51.98-.51.43 0 .61.16.98.51.41.39.97.93 2.02.93s1.61-.54 2.02-.93c.37-.35.55-.51.98-.51.43 0 .61.16.98.51.41.39.97.93 2.02.93s1.61-.54 2.02-.93c.37-.35.55-.51.98-.51.43 0 .61.16.98.51.41.39.97.93 2.02.93.41 0 .75-.34.75-.75ZM20.5 10v.5c0 .28-.22.5-.5.5H4c-.28 0-.5-.22-.5-.5V10c0-4 3-7 8.5-7s8.5 3 8.5 7ZM8.75 7c0-.2-.08-.39-.22-.53-.28-.28-.79-.28-1.06 0a.776.776 0 0 0-.22.53.75.75 0 0 0 1.5 0Zm4-1a.75.75 0 1 0-1.499 0 .75.75 0 0 0 1.499 0Zm4 1a.75.75 0 1 0-1.44.29.75.75 0 0 0 1.44-.29Z"/></svg>

<svg width="24" height="24" viewBox="0 0 24 24" fill="none" xmlns="http://www.w3.org/2000/svg">
<path d="M3.5 18V17.5C3.5 17.22 3.72 17 4 17H20C20.28 17 20.5 17.22 20.5 17.5V18C20.5 20 19.5 21 17.5 21H6.5C4.5 21 3.5 20 3.5 18ZM21.75 14.72C21.75 14.31 21.41 13.97 21 13.97C20.59 13.97 20.39 13.81 20.02 13.46C19.61 13.07 19.05 12.53 18 12.53C16.95 12.53 16.39 13.07 15.98 13.46C15.61 13.81 15.43 13.97 15 13.97C14.57 13.97 14.39 13.81 14.02 13.46C13.61 13.07 13.05 12.53 12 12.53C10.95 12.53 10.39 13.07 9.98001 13.46C9.61001 13.81 9.43 13.97 9 13.97C8.57 13.97 8.38999 13.81 8.01999 13.46C7.60999 13.07 7.05 12.53 6 12.53C4.95 12.53 4.39001 13.07 3.98001 13.46C3.61001 13.81 3.43 13.97 3 13.97C2.57 13.97 2.25 14.31 2.25 14.72C2.25 15.13 2.59 15.47 3 15.47C4.05 15.47 4.60999 14.93 5.01999 14.54C5.38999 14.19 5.57 14.03 6 14.03C6.43 14.03 6.61001 14.19 6.98001 14.54C7.39001 14.93 7.95 15.47 9 15.47C10.05 15.47 10.61 14.93 11.02 14.54C11.39 14.19 11.57 14.03 12 14.03C12.43 14.03 12.61 14.19 12.98 14.54C13.39 14.93 13.95 15.47 15 15.47C16.05 15.47 16.61 14.93 17.02 14.54C17.39 14.19 17.57 14.03 18 14.03C18.43 14.03 18.61 14.19 18.98 14.54C19.39 14.93 19.95 15.47 21 15.47C21.41 15.47 21.75 15.13 21.75 14.72ZM20.5 10V10.5C20.5 10.78 20.28 11 20 11H4C3.72 11 3.5 10.78 3.5 10.5V10C3.5 6 6.5 3 12 3C17.5 3 20.5 6 20.5 10ZM8.75 7C8.75 6.8 8.67 6.61 8.53 6.47C8.25 6.19 7.74 6.19 7.47 6.47C7.4 6.54 7.35 6.62001 7.31 6.71001C7.27 6.81001 7.25 6.9 7.25 7C7.25 7.2 7.33 7.39 7.47 7.53C7.61 7.67 7.8 7.75 8 7.75C8.2 7.75 8.39 7.67 8.53 7.53C8.67 7.39 8.75 7.2 8.75 7ZM12.75 6C12.75 5.8 12.67 5.61 12.53 5.47C12.46 5.4 12.38 5.34 12.29 5.31C12.01 5.19 11.68 5.26 11.47 5.47C11.33 5.61 11.25 5.8 11.25 6C11.25 6.1 11.27 6.18999 11.31 6.28999C11.35 6.37999 11.4 6.46 11.47 6.53C11.61 6.67 11.8 6.75 12 6.75C12.1 6.75 12.19 6.73 12.29 6.69C12.38 6.65 12.46 6.6 12.53 6.53C12.6 6.46 12.65 6.37999 12.69 6.28999C12.73 6.18999 12.75 6.1 12.75 6ZM16.75 7C16.75 6.8 16.67 6.61 16.53 6.47C16.46 6.4 16.38 6.35 16.29 6.31C16.01 6.19 15.67 6.26 15.47 6.47C15.33 6.61 15.25 6.8 15.25 7C15.25 7.1 15.27 7.19999 15.31 7.28999C15.34 7.37999 15.4 7.46 15.47 7.53C15.61 7.67 15.8 7.75 16 7.75C16.1 7.75 16.19 7.73 16.29 7.69C16.38 7.65 16.46 7.6 16.53 7.53C16.6 7.46 16.65 7.37999 16.69 7.28999C16.73 7.19999 16.75 7.1 16.75 7Z" fill="currentColor"/>
</svg>
